X:257
T:In a mellow tone
Z:Jack Campin, http://www.campin.me.uk/
F:Jack Campin's Nine-Note Tunebook
% last edit 03-02-2013
C:Duke Ellington
M:4/4
L:1/8
Q:1/2=86
K:F
zE2C DE2F-|F8|zE2C  DE2F-|F8 |\
zE2C DE2F-|F8|z2GD  FG2A-|A8 |
zG2D FG2D-|D8|z2FG- GF2A-|A8 |\
zE2C DE2F-|F8|z2FA- A2FC-|C8 |
zE2C DE2F-|F8|zE2C  DE2F-|F8 |\
zE2C DE2F-|F8|z2GD  FG2A-|A8 |
z_A3 d2AD-|D8|z_A3  d2AD-|D8 |\
z_A3 d2AD-|D8|zE2C  DE2F-|F8|]

